cssgg/community.svg

<svg
  width="24"
  height="24"
  viewBox="0 0 24 24"
  fill="none"
  xmlns="http://www.w3.org/2000/svg"
>
  <path
    fill-rule="evenodd"
    clip-rule="evenodd"
    d="M12 17.456C11.2389 17.8053 10.3922 18 9.5 18C6.18629 18 3.5 15.3137 3.5 12C3.5 8.68629 6.18629 6 9.5 6C10.3922 6 11.2389 6.19474 12 6.54404C12.7611 6.19474 13.6078 6 14.5 6C17.8137 6 20.5 8.68629 20.5 12C20.5 15.3137 17.8137 18 14.5 18C13.6078 18 12.7611 17.8053 12 17.456ZM10.0003 15.969C9.83637 15.9895 9.66942 16 9.5 16C7.29086 16 5.5 14.2091 5.5 12C5.5 9.79086 7.29086 8 9.5 8C9.66942 8 9.83637 8.01053 10.0003 8.03098C9.06656 9.08871 8.5 10.4782 8.5 12C8.5 13.5218 9.06656 14.9113 10.0003 15.969ZM13.9998 8.03098C14.1636 8.01054 14.3306 8 14.5 8C16.7091 8 18.5 9.79086 18.5 12C18.5 14.2091 16.7091 16 14.5 16C14.3306 16 14.1636 15.9895 13.9998 15.969C14.9334 14.9113 15.5 13.5218 15.5 12C15.5 10.4782 14.9334 9.08872 13.9998 8.03098ZM12 8.87732C12.9145 9.61038 13.5 10.7368 13.5 12C13.5 13.2632 12.9145 14.3896 12 15.1227C11.0855 14.3896 10.5 13.2632 10.5 12C10.5 10.7368 11.0855 9.61038 12 8.87732Z"
    fill="currentColor"
  />
</svg>

<svg viewBox="0 0 24 24" xmlns="http://www.w3.org/2000/svg"><path fill-rule="evenodd" d="M12 17.456c-.77.34-1.61.54-2.5.54 -3.32 0-6-2.69-6-6 0-3.32 2.68-6 6-6 .89 0 1.73.19 2.5.54 .76-.35 1.6-.55 2.5-.55 3.31 0 6 2.68 6 6 0 3.31-2.69 6-6 6 -.9 0-1.74-.2-2.5-.55Zm-2-1.49c-.17.02-.34.03-.51.03 -2.21 0-4-1.8-4-4 0-2.21 1.79-4 4-4 .16 0 .33.01.5.03 -.94 1.05-1.51 2.44-1.51 3.96s.56 2.91 1.5 3.96Zm3.99-7.94c.16-.03.33-.04.5-.04 2.2 0 4 1.79 4 4 0 2.2-1.8 4-4 4 -.17 0-.34-.02-.51-.04 .93-1.06 1.5-2.45 1.5-3.97 0-1.53-.57-2.92-1.51-3.97Zm-2 .84c.91.73 1.5 1.85 1.5 3.12 0 1.26-.59 2.38-1.5 3.12 -.92-.74-1.5-1.86-1.5-3.13 0-1.27.58-2.39 1.5-3.13Z"/></svg>
